X:35
T:Benjamin Bowlabags
C:Traditional
Z:Sabine Baring Gould 1896
H:Possibly a sailors song of about 1650 concerning the Napoleonic wars.
M:3/4
L:1/8
K:G
z z DD |:G3 G G2 |F3 E D2 |G3 G G2 |
w:Would you know how know how the wars be-gan? Ben-ja-min
Bc d2 DD |G3 G G2 |F3 E D2 |c2 c B2 A- |
w:Bow-la-bags. Would you know how the wars be-gan? Cast threads a-way
A4 Bc |d3 d d2 |c3 c c2 |B3 B B2 |
w:Would you know how the wars be-gan? Nine tai-lors
A F2 D2 G- |G3 G G2 |E c2 G2 A- |A3 G F2 |[1
w:make a man. And so the proud tailor went prancing a-way.
G4 DD :|[2G6 |]
